X:60
T: Small Hills of Offaly
S: J.Kelly - P.O'Brien
Z: B.Black
R: reel
M: 4/4
L: 1/8
K: D
d2 Af dBAF|(3ABA EA cege |d2 Af dBAF | EFGE BEGE |
d2 Af dBAF|(3ABA EA cege |d2 Af dBAF | EAGE D2 Ac :|
d3 f a2 af|egfd cAeA |d3 f a2 af | egfd cAGA |
defg a3 f | egfd cAGA |cded cAGA | FDGE FD D2 :|
